brandFactory_export/1.Light/Autentificación_1Light.svg

<?xml version="1.0" encoding="UTF-8"?>
<svg width="24px" height="24px" viewBox="0 0 24 24" version="1.1" xmlns="http://www.w3.org/2000/svg" xmlns:xlink="http://www.w3.org/1999/xlink">
    <title>1.Light/Autentificación_1Light</title>
    <g id="Symbols" stroke="none" stroke-width="1" fill="none" fill-rule="evenodd">
        <g id="1.Light/Autentificación_1Light" fill="#5CB615" fill-rule="nonzero">
            <path d="M7.83529412,15.8890756 C8.02689076,15.697479 8.3394958,15.697479 8.53109244,15.8890756 C8.72268908,16.0806723 8.72268908,16.3932773 8.53109244,16.5848739 L4.70588235,20.4067227 C4.51428571,20.5983193 4.20168067,20.6016807 4.01008403,20.410084 L4.00672269,20.4067227 L2.28571429,18.6890756 C2.09411765,18.497479 2.09411765,18.1848739 2.28571429,17.9932773 C2.47731092,17.8016807 2.78991597,17.8016807 2.98151261,17.9932773 L4.35294118,19.3613445 C4.35630252,19.3613445 7.83529412,15.8890756 7.83529412,15.8890756 Z M16,11.6369748 C16.6420168,11.0218487 16.9680672,10.0605042 16.9680672,8.78655462 C16.9680672,7.5092437 16.6420168,6.54789916 16,5.92941176 C15.3781513,5.33109244 14.4403361,5.02857143 13.2033613,5.02857143 C11.9731092,5.02857143 11.0352941,5.33109244 10.4168067,5.92941176 C9.77815126,6.54789916 9.45210084,7.5092437 9.45210084,8.78655462 C9.45210084,10.0638655 9.77815126,11.0218487 10.4134454,11.6369748 C11.0285714,12.2319328 11.9697479,12.5310924 13.2,12.5310924 C14.4403361,12.5310924 15.3781513,12.2285714 16,11.6369748 L16,11.6369748 Z M13.2033613,4.04369748 C14.702521,4.04369748 15.8722689,4.44033613 16.6823529,5.22016807 C17.5260504,6.0302521 17.9529412,7.2302521 17.9529412,8.78319328 C17.9529412,10.3361345 17.5260504,11.5327731 16.6823529,12.3428571 C15.8722689,13.1159664 14.702521,13.512605 13.2033613,13.512605 C11.707563,13.512605 10.5378151,13.1193277 9.73109244,12.3428571 C8.89411765,11.5361345 8.46722689,10.3394958 8.46722689,8.78319328 C8.46722689,7.22689076 8.8907563,6.0302521 9.73109244,5.22016807 C10.5378151,4.44033613 11.707563,4.04369748 13.2033613,4.04369748 Z M22.1344538,14.8504202 C22.6084034,12.1042017 22.6655462,6.01680672 22.6655462,4.15798319 C20.4840336,4.33613445 19.1630252,3.4789916 17.8991597,2.64201681 C16.6756303,1.82184874 15.405042,0.98487395 13.210084,0.98487395 L13.2,0.98487395 C11.0084034,0.98487395 9.73781513,1.82184874 8.51428571,2.63865546 C7.24033613,3.47563025 5.91932773,4.35294118 3.74789916,4.16470588 C3.74789916,5.6605042 3.78823529,9.87563025 4.05378151,12.9008403 C4.47731092,12.8336134 4.9210084,12.7831933 5.40504202,12.7831933 C7.64369748,12.7831933 9.25378151,13.5394958 10.1008403,15.0957983 L16.0907563,15.0957983 C17.9865546,15.0957983 19.5529412,15.6773109 20.6184874,16.789916 C20.6789916,16.8504202 20.7865546,16.994958 20.8941176,17.1428571 C21.5428571,16.3966387 21.9966387,15.6168067 22.1344538,14.8504202 L22.1344538,14.8504202 Z M13.2033613,22.5815126 C14.1344538,22.1277311 17.8823529,20.1882353 20.2184874,17.8823529 C20.1210084,17.7411765 20.0201681,17.6033613 19.912605,17.4689076 C19.0352941,16.5613445 17.7142857,16.0806723 16.0941176,16.0806723 L10.5008403,16.0806723 C10.6789916,16.692437 10.7865546,17.3613445 10.7865546,18.1478992 C10.7865546,19.2605042 10.5815126,20.1680672 10.2352941,20.9243697 C11.5764706,21.7512605 12.7495798,22.3529412 13.2033613,22.5815126 L13.2033613,22.5815126 Z M5.40840336,22.5310924 C8.4,22.5310924 9.79831933,21.1327731 9.79831933,18.1478992 C9.79831933,15.1529412 8.4,13.7647059 5.40840336,13.7647059 C2.42016807,13.7647059 1.01848739,15.1529412 1.01848739,18.1478992 C1.01848739,21.1327731 2.42016807,22.5310924 5.40840336,22.5310924 Z M23.6537815,3.60336134 C23.6638655,3.92941176 23.6840336,11.6773109 23.102521,15.0151261 C22.3529412,19.3176471 13.7882353,23.405042 13.4218487,23.5731092 C13.3546218,23.6033613 13.2840336,23.6235294 13.2067227,23.6235294 C13.1361345,23.6201681 13.0655462,23.6033613 12.9983193,23.5731092 C12.9378151,23.5428571 11.4890756,22.8537815 9.7210084,21.7613445 C8.81344538,22.9310924 7.35462185,23.512605 5.40840336,23.512605 C2.01008403,23.512605 0.0302521008,21.7983193 0.0302521008,18.1445378 C0.0302521008,15.4252101 1.12605042,13.7915966 3.08907563,13.1226891 C2.74621849,9.36470588 2.76638655,3.66386555 2.76638655,3.60336134 C2.76638655,3.44537815 2.83361345,3.30756303 2.94453782,3.22016807 C3.06218487,3.12268908 3.22016807,3.09243697 3.36806723,3.12268908 C5.48907563,3.45882353 6.64537815,2.69915966 7.96638655,1.81176471 C9.25714286,0.964705882 10.7193277,0 13.2033613,0 L13.2134454,0 C15.7008403,0 17.1596639,0.964705882 18.4436975,1.81176471 C19.7747899,2.69915966 20.9310924,3.45546218 23.0521008,3.12268908 C23.189916,3.10252101 23.3579832,3.14285714 23.4655462,3.2302521 C23.5764706,3.32773109 23.6537815,3.45546218 23.6537815,3.60336134 Z" id="Autentificación_1Light"></path>
        </g>
    </g>
</svg>

<svg width="24" height="24" viewBox="0 0 24 24" xmlns="http://www.w3.org/2000/svg"><path d="M7.835 15.89a.493.493 0 01.696.695l-3.825 3.822a.493.493 0 01-.696.003l-.003-.003-1.721-1.718a.493.493 0 01.696-.696l1.37 1.368c.004 0 3.483-3.472 3.483-3.472zM16 11.636c.642-.615.968-1.576.968-2.85 0-1.278-.326-2.24-.968-2.858-.622-.598-1.56-.9-2.797-.9-1.23 0-2.168.302-2.786.9-.639.619-.965 1.58-.965 2.858 0 1.277.326 2.235.961 2.85.616.595 1.557.894 2.787.894 1.24 0 2.178-.302 2.8-.894zm-2.797-7.593c1.5 0 2.67.396 3.48 1.176.843.81 1.27 2.01 1.27 3.563 0 1.553-.427 2.75-1.27 3.56-.81.773-1.98 1.17-3.48 1.17-1.495 0-2.665-.394-3.472-1.17-.837-.807-1.264-2.004-1.264-3.56S8.891 6.03 9.731 5.22c.807-.78 1.977-1.176 3.472-1.176zm8.931 10.806c.474-2.746.532-8.833.532-10.692-2.182.178-3.503-.679-4.767-1.516-1.223-.82-2.494-1.657-4.689-1.657h-.01c-2.192 0-3.462.837-4.686 1.654-1.274.837-2.595 1.714-4.766 1.526 0 1.496.04 5.71.306 8.736a8.497 8.497 0 011.351-.118c2.239 0 3.849.756 4.696 2.313h5.99c1.896 0 3.462.581 4.527 1.694.061.06.169.205.276.353.649-.746 1.103-1.526 1.24-2.293zm-8.93 7.732c.93-.454 4.678-2.394 7.014-4.7a7.286 7.286 0 00-.305-.413c-.878-.908-2.199-1.388-3.819-1.388h-5.593a7.26 7.26 0 01.286 2.067c0 1.113-.205 2.02-.552 2.776a40.53 40.53 0 002.968 1.658zm-7.796-.05c2.992 0 4.39-1.4 4.39-4.384 0-2.995-1.398-4.383-4.39-4.383-2.988 0-4.39 1.388-4.39 4.383 0 2.985 1.402 4.383 4.39 4.383zM23.654 3.602c.01.326.03 8.074-.551 11.412-.75 4.303-9.315 8.39-9.681 8.558a.518.518 0 01-.215.05.574.574 0 01-.209-.05c-.06-.03-1.509-.72-3.277-1.812-.908 1.17-2.366 1.752-4.313 1.752-3.398 0-5.378-1.715-5.378-5.368 0-2.72 1.096-4.353 3.06-5.022-.344-3.758-.324-9.46-.324-9.52a.48.48 0 01.179-.383c.117-.097.275-.128.423-.097 2.121.336 3.277-.424 4.598-1.311C9.257.965 10.72 0 13.203 0h.01c2.488 0 3.947.965 5.23 1.812 1.332.887 2.488 1.643 4.61 1.31.137-.02.305.02.413.108.11.098.188.225.188.373z" fill="#5CB615" fill-rule="nonzero"/></svg>
